X:356
%%etbk:tnset id:167,pos:2,rep:3x,ant:
%%etbk:pldat 2014-12-31T15:22,2014-02-16T14:13,2014-02-14T16:09,2014-02-05T15:56,2013-11-27T17:39,2013-11-19T15:22,2013-10-04T16:23,2013-10-03T19:41,2013-05-22T16:03,2013-05-18T14:09,2013-05-14T18:18
T:Eddie Kelly's No. 2
Z: Piano Box Version by Martin Fleischmann
H: Created 2013-02-19 /  Last Modified 2013-04-04
M:6/8
L:1/8
R:jig
K: Emin
|: "em"!5!B!1!E!2!F !3!G2!4!A | !2!B!5!ee !5!e!4!d!3!c | !2!BBB !1!G!2!B!1!G | "D"!4!A!2!F!1!D AFD |
"em"!3!GEF !3!G2!4!A | !2!B2!5!e edc | !2!BBB !1!G!2!B!1!G |1 "D"!4!A!2!F!1!D "em"!1!E2F:|2 "D"!4!A!2!F!1!D "em"!1!E2!4!f||
|: "em"!5!gfe !4!fed | !1!B!3!ee Bee | !5!gfe !4!fed | "bm"!1!B!2!^c!1!d "em"!3!e2!4!f |
"em"!5!gfe !4!fed | !1!B!3!ee Bee | !5!gfe !4!fed |1 "bm"!1!B!2!^c!1!d "em"!3!e2!4!f:|2 "bm"!1!B!3!^c!4!d !5!e!4!d!3!=c|


